X: 4
T:Miss Brown's Fancy (#184)
M:9/8
L:1/8
S:Sergt. James O'Neill manuscript
K:G
D2 A A2 G ABc|D2 A BGE G2 E|D2 A A2 G ABc|BAG AGE G2 E:||
c2 d ecA A2 c|B2 c dBG G2 B|c2 d ecA ABc|BAG AGE G2 E|
c2 d ecA A2 c|B2 c dBG G2 B|c2 d e2 f g2 e|dBG AGE G2 E||

